packages/astro-components-stencil/src/icons/videocam.svg

<svg xmlns="http://www.w3.org/2000/svg" viewBox="0 0 24 24"><g xmlns="http://www.w3.org/2000/svg" id="videocam" fill-rule="nonzero">
            <path d="M17 10.5V7c0-.55-.45-1-1-1H4c-.55 0-1 .45-1 1v10c0 .55.45 1 1 1h12c.55 0 1-.45 1-1v-3.5l2.29 2.29c.63.63 1.71.18 1.71-.71V8.91c0-.89-1.08-1.34-1.71-.71L17 10.5z"/>
        </g></svg>

<svg width="24" height="24" viewBox="0 0 24 24" fill="none" xmlns="http://www.w3.org/2000/svg">
<path d="M17 10.5V7C17 6.45 16.55 6 16 6H4C3.45 6 3 6.45 3 7V17C3 17.55 3.45 18 4 18H16C16.55 18 17 17.55 17 17V13.5L19.29 15.79C19.92 16.42 21 15.97 21 15.08V8.91C21 8.02 19.92 7.57 19.29 8.2L17 10.5Z" fill="black"/>
</svg>
